X: 100461
M: C|
L: 1/8
K: Bm
(uF/E/) |\
(D<B,)(B,>C) (D>E)Fg | (fd) (e/d/c/d/) FBB :|
(uf/a/) |\
(.b>.c')(d'>c') (.b>.a)(f>b) | (.a>.f) (ef/e/) dAA (f/a/) |\
(.b>.c')(d'>c') (.b>.a) (g/a/b/c'/) | (.d'>.f) (e/d/)c/d/ (B/d/)f/d/ (Bd/e/) |
fd'd' (f/d/) caa (d/c/) | (B>c) (d/c/d/e/) fBB (D/E/) |\
[FD][FD][FD] (C/D/) [EC][EC][EC] (D/C/) | (B,/A,/)C/D/ (F^A,) B,3 |]


